X:1
T: Castle Newe
C:Alexander Walker
R:Strathspey
Q: 128
K:A
M:4/4
L:1/16
|:d2|c3B A3F EA,3 C4|B,B3 B3A B3F FB3|c3B A3F EA,3 C4|E3F A3B cA3 A2d2|
c3B A3F EA,3 C4|B,B3 B3A B3F FB3|c3B A3F EA,3 C4|E3F A3B cA3 A2e2|
dcBA e3A f3A e3A|d3B c3A B3A F3e|dcBA e3A f3A e3A|E3F A3B cA3 A3g|
agfe d3f eA3 c4|d3B c3A B3A F3B|((3A2B2c2) ((3B2c2d2) ((3c2d2f2) e4|E3F A3B cA3 A2:|
